;FLAVOR:Marlin
;TIME:76
;Filament used: 0.0378084m
;Layer height: 0.1
;MINX:-7.3
;MINY:-5.8
;MINZ:0.3
;MAXX:7.3
;MAXY:5.8
;MAXZ:0.5
;Generated with Cura_SteamEngine 5.2.1
M140 S60
M105
M190 S60
M104 S210
M105
M109 S210
M82 ;absolute extrusion mode
; Ender 3 Custom Start G-code
G92 E0 ; Reset Extruder
G28 ; Home all axes
G1 Z2.0 F3000 ; Move Z Axis up little to prevent scratching of Heat Bed
G1 X0.1 Y20 Z0.3 F5000.0 ; Move to start position

G92 E0 ; Reset Extruder

G1 Z2.0 F3000 ; Move Z Axis up little to prevent scratching of Heat Bed
G1 X5 Y20 Z0.3 F5000.0 ; Move over to prevent blob squish
G92 E0
G92 E0
G1 F2400 E-3
;LAYER_COUNT:3
;LAYER:0
M107
;MESH:retangel0.5mm.stl
G0 F6000 X-6.9 Y5.4 Z0.3
;TYPE:WALL-INNER
G1 F2400 E0
G1 F1200 X6.9 Y5.4 E0.68848
G1 X6.9 Y0.00 E0.95789
G1 X6.9 Y-5.4 E1.2273
G1 X-6.9 Y-5.4 E1.91578
G1 X-6.9 Y5.4 E2.4546
G0 F6000 X-7.3 Y5.8
;TYPE:WALL-OUTER
G1 F1200 X7.3 Y5.8 E3.18299
G1 X7.3 Y0.00 E3.47236
G1 X7.3 Y-5.8 E3.76172
G1 X-7.3 Y-5.8 E4.49012
G1 X-7.3 Y5.8 E5.06884
G0 F6000 X-7.03 Y5.53
G0 X-6.8 Y5.04
G0 X-6.54 Y5.04
;TYPE:SKIN
G1 F1200 X6.54 Y5.04 E5.72141
G1 X6.54 Y0.00 E5.97286
G1 X6.54 Y-5.04 E6.2243
G1 X-6.54 Y-5.04 E6.87687
G1 X-6.54 Y5.04 E7.37976
G0 F6000 X-6.339 Y4.408
G1 F1200 X-5.907 Y4.84 E7.41024
G0 F6000 X-5.342 Y4.84
G1 F1200 X-6.339 Y3.843 E7.48058
G0 F6000 X-6.339 Y3.277
G1 F1200 X-4.776 Y4.84 E7.59086
G0 F6000 X-4.21 Y4.84
G1 F1200 X-6.339 Y2.711 E7.74107
G0 F6000 X-6.339 Y2.146
G1 F1200 X-3.645 Y4.84 E7.93115
G0 F6000 X-3.079 Y4.84
G1 F1200 X-6.339 Y1.58 E8.16116
G0 F6000 X-6.339 Y1.014
G1 F1200 X-2.513 Y4.84 E8.4311
G0 F6000 X-1.948 Y4.84
G1 F1200 X-6.339 Y0.449 E8.74091
G0 F6000 X-6.339 Y-.116
G1 F1200 X-1.382 Y4.84 E9.09062
G0 F6000 X-.816 Y4.84
G1 F1200 X-6.339 Y-.682 E9.48026
G0 F6000 X-6.339 Y-1.248
G1 F1200 X-.251 Y4.84 E9.9098
G0 F6000 X0.314 Y4.84
G1 F1200 X-6.339 Y-1.813 E10.37921
G0 F6000 X-6.339 Y-2.379
G1 F1200 X0.88 Y4.84 E10.88855
G0 F6000 X1.446 Y4.84
G1 F1200 X-6.339 Y-2.945 E11.43782
G0 F6000 X-6.339 Y-3.51
G1 F1200 X2.011 Y4.84 E12.02696
G0 F6000 X2.577 Y4.84
G1 F1200 X-6.339 Y-4.076 E12.65603
G0 F6000 X-6.339 Y-4.642
G1 F1200 X3.143 Y4.84 E13.32504
G0 F6000 X3.708 Y4.84
G1 F1200 X-5.971 Y-4.84 E14.00798
G0 F6000 X-5.405 Y-4.84
G1 F1200 X4.274 Y4.84 E14.69092
G0 F6000 X4.84 Y4.84
G1 F1200 X-4.84 Y-4.84 E15.3739
G0 F6000 X-4.274 Y-4.84
G1 F1200 X5.405 Y4.84 E16.05684
G0 F6000 X5.971 Y4.84
G1 F1200 X-3.708 Y-4.84 E16.73978
G0 F6000 X-3.143 Y-4.84
G1 F1200 X6.339 Y4.642 E17.40879
G0 F6000 X6.339 Y4.076
G1 F1200 X-2.577 Y-4.84 E18.03786
G0 F6000 X-2.011 Y-4.84
G1 F1200 X6.339 Y3.51 E18.627
G0 F6000 X6.339 Y2.945
G1 F1200 X-1.446 Y-4.84 E19.17627
G0 F6000 X-.88 Y-4.84
G1 F1200 X6.339 Y2.379 E19.68561
G0 F6000 X6.339 Y1.813
G1 F1200 X-.314 Y-4.84 E20.15501
G0 F6000 X0.251 Y-4.84
G1 F1200 X6.339 Y1.248 E20.58455
G0 F6000 X6.339 Y0.682
G1 F1200 X0.816 Y-4.84 E20.9742
G0 F6000 X1.382 Y-4.84
G1 F1200 X6.339 Y0.116 E21.3239
G0 F6000 X6.339 Y-.449
G1 F1200 X1.948 Y-4.84 E21.63371
G0 F6000 X2.513 Y-4.84
G1 F1200 X6.339 Y-1.014 E21.90366
G0 F6000 X6.339 Y-1.58
G1 F1200 X3.079 Y-4.84 E22.13367
G0 F6000 X3.645 Y-4.84
G1 F1200 X6.339 Y-2.146 E22.32375
G0 F6000 X6.339 Y-2.711
G1 F1200 X4.21 Y-4.84 E22.47396
G0 F6000 X4.776 Y-4.84
G1 F1200 X6.339 Y-3.277 E22.58424
G0 F6000 X6.339 Y-3.843
G1 F1200 X5.342 Y-4.84 E22.65458
G0 F6000 X5.907 Y-4.84
G1 F1200 X6.339 Y-4.408 E22.68506
;MESH:NONMESH
G0 F300 X6.339 Y-4.408 Z0.4
G0 F6000 X6.8 Y-4.408
G0 X6.728 Y5.228
G0 X-6.9 Y5.4
;TIME_ELAPSED:30.804545
;LAYER:1
M106 S85
;TYPE:WALL-INNER
;MESH:retangel0.5mm.stl
G1 F1350 X6.9 Y5.4 E22.91455
G1 X6.9 Y0.00 E23.00436
G1 X6.9 Y-5.4 E23.09416
G1 X-6.9 Y-5.4 E23.32365
G1 X-6.9 Y5.4 E23.50326
G0 F7500 X-7.3 Y5.8
;TYPE:WALL-OUTER
G1 F1350 X7.3 Y5.8 E23.74606
G1 X7.3 Y0.00 E23.84251
G1 X7.3 Y-5.8 E23.93897
G1 X-7.3 Y-5.8 E24.18177
G1 X-7.3 Y5.8 E24.37467
G0 F7500 X-7.03 Y5.53
G0 X-6.8 Y5.04
G0 X-6.54 Y5.04
;TYPE:SKIN
G1 F1350 X6.54 Y5.04 E24.5922
G1 X6.54 Y0.00 E24.67601
G1 X6.54 Y-5.04 E24.75983
G1 X-6.54 Y-5.04 E24.97735
G1 X-6.54 Y5.04 E25.14498
G0 F7500 X-6.8 Y5.04
G0 X-6.8 Y-4.408
G0 X-6.339 Y-4.408
G1 F1350 X-5.907 Y-4.84 E25.15514
G0 F7500 X-5.342 Y-4.84
G1 F1350 X-6.339 Y-3.843 E25.17859
G0 F7500 X-6.339 Y-3.277
G1 F1350 X-4.776 Y-4.84 E25.21535
G0 F7500 X-4.21 Y-4.84
G1 F1350 X-6.339 Y-2.711 E25.26542
G0 F7500 X-6.339 Y-2.146
G1 F1350 X-3.645 Y-4.84 E25.32878
G0 F7500 X-3.079 Y-4.84
G1 F1350 X-6.339 Y-1.58 E25.40545
G0 F7500 X-6.339 Y-1.014
G1 F1350 X-2.513 Y-4.84 E25.49543
G0 F7500 X-1.948 Y-4.84
G1 F1350 X-6.339 Y-.449 E25.5987
G0 F7500 X-6.339 Y0.116
G1 F1350 X-1.382 Y-4.84 E25.71527
G0 F7500 X-.816 Y-4.84
G1 F1350 X-6.339 Y0.682 E25.84515
G0 F7500 X-6.339 Y1.248
G1 F1350 X-.251 Y-4.84 E25.98833
G0 F7500 X0.314 Y-4.84
G1 F1350 X-6.339 Y1.813 E26.1448
G0 F7500 X-6.339 Y2.379
G1 F1350 X0.88 Y-4.84 E26.31458
G0 F7500 X1.446 Y-4.84
G1 F1350 X-6.339 Y2.945 E26.49767
G0 F7500 X-6.339 Y3.51
G1 F1350 X2.011 Y-4.84 E26.69405
G0 F7500 X2.577 Y-4.84
G1 F1350 X-6.339 Y4.076 E26.90374
G0 F7500 X-6.339 Y4.642
G1 F1350 X3.143 Y-4.84 E27.12674
G0 F7500 X3.708 Y-4.84
G1 F1350 X-5.971 Y4.84 E27.35439
G0 F7500 X-5.405 Y4.84
G1 F1350 X4.274 Y-4.84 E27.58203
G0 F7500 X4.84 Y-4.84
G1 F1350 X-4.84 Y4.84 E27.80969
G0 F7500 X-4.274 Y4.84
G1 F1350 X5.405 Y-4.84 E28.03734
G0 F7500 X5.971 Y-4.84
G1 F1350 X-3.708 Y4.84 E28.26499
G0 F7500 X-3.143 Y4.84
G1 F1350 X6.339 Y-4.642 E28.48799
G0 F7500 X6.339 Y-4.076
G1 F1350 X-2.577 Y4.84 E28.69768
G0 F7500 X-2.011 Y4.84
G1 F1350 X6.339 Y-3.51 E28.89406
G0 F7500 X6.339 Y-2.945
G1 F1350 X-1.446 Y4.84 E29.07715
G0 F7500 X-.88 Y4.84
G1 F1350 X6.339 Y-2.379 E29.24693
G0 F7500 X6.339 Y-1.813
G1 F1350 X-.314 Y4.84 E29.4034
G0 F7500 X0.251 Y4.84
G1 F1350 X6.339 Y-1.248 E29.54658
G0 F7500 X6.339 Y-.682
G1 F1350 X0.816 Y4.84 E29.67646
G0 F7500 X1.382 Y4.84
G1 F1350 X6.339 Y-.116 E29.79303
G0 F7500 X6.339 Y0.449
G1 F1350 X1.948 Y4.84 E29.8963
G0 F7500 X2.513 Y4.84
G1 F1350 X6.339 Y1.014 E29.98628
G0 F7500 X6.339 Y1.58
G1 F1350 X3.079 Y4.84 E30.06295
G0 F7500 X3.645 Y4.84
G1 F1350 X6.339 Y2.146 E30.12631
G0 F7500 X6.339 Y2.711
G1 F1350 X4.21 Y4.84 E30.17638
G0 F7500 X4.776 Y4.84
G1 F1350 X6.339 Y3.277 E30.21314
G0 F7500 X6.339 Y3.843
G1 F1350 X5.342 Y4.84 E30.23659
G0 F7500 X5.907 Y4.84
G1 F1350 X6.339 Y4.408 E30.24675
;MESH:NONMESH
G0 F300 X6.339 Y4.408 Z0.5
G0 F7500 X6.8 Y4.408
G0 X6.728 Y5.228
G0 X-6.9 Y5.4
;TIME_ELAPSED:55.091664
;LAYER:2
M106 S170
;TYPE:WALL-INNER
;MESH:retangel0.5mm.stl
G1 F1500 X6.9 Y5.4 E30.47624
G1 X6.9 Y0.00 E30.56604
G1 X6.9 Y-5.4 E30.65585
G1 X-6.9 Y-5.4 E30.88534
G1 X-6.9 Y5.4 E31.06495
G0 F9000 X-7.3 Y5.8
;TYPE:WALL-OUTER
G1 F1500 X7.3 Y5.8 E31.30774
G1 X7.3 Y0.00 E31.4042
G1 X7.3 Y-5.8 E31.50065
G1 X-7.3 Y-5.8 E31.74345
G1 X-7.3 Y5.8 E31.93636
G0 F9000 X-7.03 Y5.53
G0 X-6.8 Y5.04
G0 X-6.54 Y5.04
;TYPE:SKIN
G1 F1500 X6.54 Y5.04 E32.15388
G1 X6.54 Y0.00 E32.2377
G1 X6.54 Y-5.04 E32.32151
G1 X-6.54 Y-5.04 E32.53903
G1 X-6.54 Y5.04 E32.70667
G0 F9000 X-6.339 Y4.408
G1 F1500 X-5.907 Y4.84 E32.71683
G0 F9000 X-5.342 Y4.84
G1 F1500 X-6.339 Y3.843 E32.74027
G0 F9000 X-6.339 Y3.277
G1 F1500 X-4.776 Y4.84 E32.77703
G0 F9000 X-4.21 Y4.84
G1 F1500 X-6.339 Y2.711 E32.8271
G0 F9000 X-6.339 Y2.146
G1 F1500 X-3.645 Y4.84 E32.89046
G0 F9000 X-3.079 Y4.84
G1 F1500 X-6.339 Y1.58 E32.96713
G0 F9000 X-6.339 Y1.014
G1 F1500 X-2.513 Y4.84 E33.05711
G0 F9000 X-1.948 Y4.84
G1 F1500 X-6.339 Y0.449 E33.16038
G0 F9000 X-6.339 Y-.116
G1 F1500 X-1.382 Y4.84 E33.27695
G0 F9000 X-.816 Y4.84
G1 F1500 X-6.339 Y-.682 E33.40683
G0 F9000 X-6.339 Y-1.248
G1 F1500 X-.251 Y4.84 E33.55001
G0 F9000 X0.314 Y4.84
G1 F1500 X-6.339 Y-1.813 E33.70648
G0 F9000 X-6.339 Y-2.379
G1 F1500 X0.88 Y4.84 E33.87626
G0 F9000 X1.446 Y4.84
G1 F1500 X-6.339 Y-2.945 E34.05935
G0 F9000 X-6.339 Y-3.51
G1 F1500 X2.011 Y4.84 E34.25573
G0 F9000 X2.577 Y4.84
G1 F1500 X-6.339 Y-4.076 E34.46542
G0 F9000 X-6.339 Y-4.642
G1 F1500 X3.143 Y4.84 E34.68843
G0 F9000 X3.708 Y4.84
G1 F1500 X-5.971 Y-4.84 E34.91607
G0 F9000 X-5.405 Y-4.84
G1 F1500 X4.274 Y4.84 E35.14372
G0 F9000 X4.84 Y4.84
G1 F1500 X-4.84 Y-4.84 E35.37138
G0 F9000 X-4.274 Y-4.84
G1 F1500 X5.405 Y4.84 E35.59903
G0 F9000 X5.971 Y4.84
G1 F1500 X-3.708 Y-4.84 E35.82667
G0 F9000 X-3.143 Y-4.84
G1 F1500 X6.339 Y4.642 E36.04967
G0 F9000 X6.339 Y4.076
G1 F1500 X-2.577 Y-4.84 E36.25937
G0 F9000 X-2.011 Y-4.84
G1 F1500 X6.339 Y3.51 E36.45574
G0 F9000 X6.339 Y2.945
G1 F1500 X-1.446 Y-4.84 E36.63884
G0 F9000 X-.88 Y-4.84
G1 F1500 X6.339 Y2.379 E36.80862
G0 F9000 X6.339 Y1.813
G1 F1500 X-.314 Y-4.84 E36.96508
G0 F9000 X0.251 Y-4.84
G1 F1500 X6.339 Y1.248 E37.10826
G0 F9000 X6.339 Y0.682
G1 F1500 X0.816 Y-4.84 E37.23815
G0 F9000 X1.382 Y-4.84
G1 F1500 X6.339 Y0.116 E37.35471
G0 F9000 X6.339 Y-.449
G1 F1500 X1.948 Y-4.84 E37.45798
G0 F9000 X2.513 Y-4.84
G1 F1500 X6.339 Y-1.014 E37.54797
G0 F9000 X6.339 Y-1.58
G1 F1500 X3.079 Y-4.84 E37.62464
G0 F9000 X3.645 Y-4.84
G1 F1500 X6.339 Y-2.146 E37.68799
G0 F9000 X6.339 Y-2.711
G1 F1500 X4.21 Y-4.84 E37.73807
G0 F9000 X4.776 Y-4.84
G1 F1500 X6.339 Y-3.277 E37.77482
G0 F9000 X6.339 Y-3.843
G1 F1500 X5.342 Y-4.84 E37.79827
G0 F9000 X5.907 Y-4.84
G1 F1500 X6.339 Y-4.408 E37.80843
