; generated by Slic3r 1.3.0 on 2023-02-02 at 21:41:50

; external perimeters extrusion width = 0.55mm (0.00mm^3/s)
; perimeters extrusion width = 0.70mm (0.00mm^3/s)
; infill extrusion width = 0.63mm (9.31mm^3/s)
; solid infill extrusion width = 0.70mm (2.63mm^3/s)
; top infill extrusion width = 0.70mm (1.97mm^3/s)
; support material extrusion width = 0.55mm (6.08mm^3/s)

M107
M190 S65 ; set bed temperature and wait for it to be reached
M104 S215 ; set temperature
G28 ; home all axes
G1 Z5 F5000 ; lift nozzle

; Filament gcode

M109 S215 ; set temperature and wait for it to be reached
G21 ; set units to millimeters
G90 ; use absolute coordinates
M82 ; use absolute distances for extrusion
G92 E0
G1 Z0.220 F7200.000
G1 E-2.00000 F2400.00000
G92 E0
G1 X87.645 Y89.841 F7200.000
G1 E2.00000 F2400.00000
G1 F1800
G1 X89.390 Y88.415 E2.08093
G1 X92.500 Y87.607 E2.19638
G1 X107.500 Y87.607 E2.73528
G1 X109.717 Y88.004 E2.81621
G1 X111.659 Y89.145 E2.89714
G1 X113.085 Y90.890 E2.97806
G1 X113.893 Y94.000 E3.09352
G1 X113.893 Y106.000 E3.52464
G1 X113.496 Y108.217 E3.60557
G1 X112.355 Y110.159 E3.68649
G1 X110.610 Y111.585 E3.76742
G1 X107.500 Y112.393 E3.88288
G1 X92.500 Y112.393 E4.42177
G1 X90.283 Y111.996 E4.50270
G1 X88.341 Y110.855 E4.58363
G1 X86.915 Y109.110 E4.66456
G1 X86.107 Y106.000 E4.78001
G1 X86.107 Y94.000 E5.21113
G1 X86.504 Y91.783 E5.29206
G1 X87.607 Y89.905 E5.37029
G1 E3.37029 F2400.00000
G92 E0
G1 X106.494 Y104.994 F7200.000
G1 E2.00000 F2400.00000
G1 F1800
G1 X93.506 Y104.994 E2.46664
G1 X93.506 Y95.006 E2.82551
G1 X106.494 Y95.006 E3.29215
G1 X106.494 Y104.919 E3.64832
G1 X106.887 Y105.387 F7200.000
G1 F1800
G1 X93.113 Y105.387 E4.14319
G1 X93.113 Y94.613 E4.53027
G1 X106.887 Y94.613 E5.02514
G1 X106.887 Y105.312 E5.40953
G1 X107.280 Y105.780 F7200.000
G1 F1800
G1 X92.720 Y105.780 E5.93262
G1 X92.720 Y94.220 E6.34793
G1 X107.280 Y94.220 E6.87102
G1 X107.280 Y105.705 E7.28364
G1 X106.792 Y105.669 F7200.000
G1 X105.949 Y104.754 F7200.000
G1 F1800
G1 X106.254 Y104.449 E7.29939
G1 X106.254 Y103.885 E7.31991
G1 X105.385 Y104.754 E7.36468
G1 X104.822 Y104.754 E7.38521
G1 X106.254 Y103.322 E7.45901
G1 X106.254 Y102.759 E7.47953
G1 X104.259 Y104.754 E7.58236
G1 X103.695 Y104.754 E7.60288
G1 X106.254 Y102.195 E7.73473
G1 X106.254 Y101.632 E7.75525
G1 X103.132 Y104.754 E7.91613
G1 X102.569 Y104.754 E7.93665
G1 X106.254 Y101.069 E8.12655
G1 X106.254 Y100.505 E8.14708
G1 X102.005 Y104.754 E8.36600
G1 X101.442 Y104.754 E8.38653
G1 X106.254 Y99.942 E8.63448
G1 X106.254 Y99.379 E8.65500
G1 X100.879 Y104.754 E8.93197
G1 X100.316 Y104.754 E8.95250
G1 X106.254 Y98.816 E9.25850
G1 X106.254 Y98.252 E9.27902
G1 X99.752 Y104.754 E9.61405
G1 X99.189 Y104.754 E9.63457
G1 X106.254 Y97.689 E9.99862
G1 X106.254 Y97.126 E10.01915
G1 X98.626 Y104.754 E10.41222
G1 X98.062 Y104.754 E10.43275
G1 X106.254 Y96.562 E10.85485
G1 X106.254 Y95.999 E10.87537
G1 X97.499 Y104.754 E11.32650
G1 X96.936 Y104.754 E11.34702
G1 X106.254 Y95.436 E11.82718
G1 X106.254 Y95.246 E11.83410
G1 X105.881 Y95.246 E11.84770
G1 X96.372 Y104.754 E12.33764
G1 X95.809 Y104.754 E12.35816
G1 X105.318 Y95.246 E12.84810
G1 X104.754 Y95.246 E12.86863
G1 X95.246 Y104.754 E13.35857
G1 X94.682 Y104.754 E13.37909
G1 X104.191 Y95.246 E13.86903
G1 X103.628 Y95.246 E13.88956
G1 X94.119 Y104.754 E14.37950
G1 X93.746 Y104.754 E14.39310
G1 X93.746 Y104.564 E14.40002
G1 X103.064 Y95.246 E14.88017
G1 X102.501 Y95.246 E14.90070
G1 X93.746 Y104.001 E15.35182
G1 X93.746 Y103.438 E15.37235
G1 X101.938 Y95.246 E15.79445
G1 X101.374 Y95.246 E15.81497
G1 X93.746 Y102.874 E16.20805
G1 X93.746 Y102.311 E16.22857
G1 X100.811 Y95.246 E16.59263
G1 X100.248 Y95.246 E16.61315
G1 X93.746 Y101.748 E16.94818
G1 X93.746 Y101.184 E16.96870
G1 X99.684 Y95.246 E17.27470
G1 X99.121 Y95.246 E17.29522
G1 X93.746 Y100.621 E17.57220
G1 X93.746 Y100.058 E17.59272
G1 X98.558 Y95.246 E17.84067
G1 X97.995 Y95.246 E17.86120
G1 X93.746 Y99.495 E18.08012
G1 X93.746 Y98.931 E18.10065
G1 X97.431 Y95.246 E18.29055
G1 X96.868 Y95.246 E18.31107
G1 X93.746 Y98.368 E18.47195
G1 X93.746 Y97.805 E18.49247
G1 X96.305 Y95.246 E18.62432
G1 X95.741 Y95.246 E18.64485
G1 X93.746 Y97.241 E18.74767
G1 X93.746 Y96.678 E18.76819
G1 X95.178 Y95.246 E18.84199
G1 X94.615 Y95.246 E18.86252
G1 X93.746 Y96.115 E18.90729
G1 X93.746 Y95.551 E18.92782
G1 X94.051 Y95.246 E18.94356
G1 Z0.220 F7200.000
M104 S210 ; set temperature
M140 S60 ; set bed temperature
G1 Z0.420 F7200.000
G1 E16.94356 F2400.00000
G92 E0
G1 X105.986 Y104.486 F7200.000
G1 E2.00000 F2400.00000
G1 F2546.67
G1 X94.014 Y104.486 E2.65409
G1 X94.014 Y95.514 E3.14427
G1 X105.986 Y95.514 E3.79836
G1 X105.986 Y104.411 E4.28444
G1 X106.643 Y105.143 F7200.000
G1 F2546.67
G1 X93.357 Y105.143 E5.01033
G1 X93.357 Y94.857 E5.57231
G1 X106.643 Y94.857 E6.29820
G1 X106.643 Y105.068 E6.85609
G1 X107.225 Y105.725 F7200.000
G1 F3300
G1 X92.775 Y105.725 E7.46536
G1 X92.775 Y94.275 E7.94813
G1 X107.225 Y94.275 E8.55740
G1 X107.225 Y105.650 E9.03701
G1 X106.737 Y105.614 F7200.000
G1 E7.03701 F2400.00000
G92 E0
G1 X105.584 Y96.427 F7200.000
G1 E2.00000 F2400.00000
G1 F900
G1 X105.073 Y95.916 E2.04098
G1 X104.109 Y95.916 E2.09561
G1 X105.584 Y97.391 E2.21385
G1 X105.584 Y98.355 E2.26848
G1 X103.145 Y95.916 E2.46398
G1 X102.181 Y95.916 E2.51861
G1 X105.584 Y99.319 E2.79137
G1 X105.584 Y100.283 E2.84600
G1 X101.217 Y95.916 E3.19602
G1 X100.253 Y95.916 E3.25066
G1 X105.584 Y101.247 E3.67794
G1 X105.584 Y102.211 E3.73257
G1 X99.289 Y95.916 E4.23712
G1 X98.326 Y95.916 E4.29175
G1 X105.584 Y103.174 E4.87356
G1 X105.584 Y104.084 E4.92512
G1 X105.530 Y104.084 E4.92819
G1 X97.362 Y95.916 E5.58292
G1 X96.398 Y95.916 E5.63755
G1 X104.566 Y104.084 E6.29229
G1 X103.602 Y104.084 E6.34692
G1 X95.434 Y95.916 E7.00165
G1 X94.470 Y95.916 E7.05628
G1 X102.638 Y104.084 E7.71102
G1 X101.674 Y104.084 E7.76565
G1 X94.416 Y96.826 E8.34746
G1 X94.416 Y97.789 E8.40209
G1 X100.711 Y104.084 E8.90663
G1 X99.747 Y104.084 E8.96127
G1 X94.416 Y98.753 E9.38855
G1 X94.416 Y99.717 E9.44318
G1 X98.783 Y104.084 E9.79320
G1 X97.819 Y104.084 E9.84784
G1 X94.416 Y100.681 E10.12060
G1 X94.416 Y101.645 E10.17523
G1 X96.855 Y104.084 E10.37073
G1 X95.891 Y104.084 E10.42536
G1 X94.416 Y102.609 E10.54360
G1 X94.416 Y103.573 E10.59823
G1 X94.927 Y104.084 E10.63920
G1 E8.63920 F2400.00000
G92 E0
; Filament-specific end gcode 
;END gcode for filament

M104 S0 ; turn off temperature
G28 X0  ; home X axis
M84     ; disable motors

M140 S0 ; set bed temperature
; filament used = 36.0mm (0.1cm3)
; total filament cost = 0.0

; avoid_crossing_perimeters = 0
; bed_shape = 0x0,200x0,200x200,0x200
; bed_temperature = 60
; before_layer_gcode = 
; between_objects_gcode = 
; bridge_acceleration = 0
; bridge_fan_speed = 100
; brim_connections_width = 0
; brim_width = 0
; complete_objects = 0
; cooling = 1
; default_acceleration = 0
; disable_fan_first_layers = 3
; duplicate_distance = 6
; end_filament_gcode = "; Filament-specific end gcode \n;END gcode for filament\n"
; end_gcode = M104 S0 ; turn off temperature\nG28 X0  ; home X axis\nM84     ; disable motors\n
; extruder_clearance_height = 20
; extruder_clearance_radius = 20
; extruder_offset = 0x0
; extrusion_axis = E
; extrusion_multiplier = 1
; fan_always_on = 0
; fan_below_layer_time = 60
; filament_colour = #FFFFFF
; filament_cost = 0
; filament_density = 0
; filament_diameter = 1.75
; filament_max_volumetric_speed = 0
; filament_notes = ""
; first_layer_acceleration = 0
; first_layer_bed_temperature = 65
; first_layer_extrusion_width = 200%
; first_layer_speed = 30
; first_layer_temperature = 215
; gcode_arcs = 0
; gcode_comments = 0
; gcode_flavor = reprap
; has_heatbed = 1
; infill_acceleration = 0
; infill_first = 0
; interior_brim_width = 0
; layer_gcode = 
; max_fan_speed = 100
; max_layer_height = 0.3
; max_print_speed = 55
; max_volumetric_speed = 0
; min_fan_speed = 35
; min_layer_height = 0.15
; min_print_speed = 10
; min_skirt_length = 0
; notes = 
; nozzle_diameter = 0.5
; only_retract_when_crossing_perimeters = 1
; ooze_prevention = 0
; output_filename_format = [input_filename_base].gcode
; perimeter_acceleration = 0
; post_process = 
; pressure_advance = 0
; printer_notes = 
; resolution = 0
; retract_before_travel = 2
; retract_layer_change = 0
; retract_length = 2
; retract_length_toolchange = 10
; retract_lift = 0
; retract_lift_above = 0
; retract_lift_below = 0
; retract_restart_extra = 0
; retract_restart_extra_toolchange = 0
; retract_speed = 40
; skirt_distance = 6
; skirt_height = 1
; skirts = 1
; slowdown_below_layer_time = 5
; spiral_vase = 0
; standby_temperature_delta = -5
; start_filament_gcode = "; Filament gcode\n"
; start_gcode = G28 ; home all axes\nG1 Z5 F5000 ; lift nozzle\n
; temperature = 210
; threads = 8
; toolchange_gcode = 
; travel_speed = 120
; use_firmware_retraction = 0
; use_relative_e_distances = 0
; use_set_and_wait_bed = 0
; use_set_and_wait_extruder = 0
; use_volumetric_e = 0
; vibration_limit = 0
; wipe = 0
; z_offset = 0
; z_steps_per_mm = 0
; adaptive_slicing = 0
; adaptive_slicing_quality = 75%
; dont_support_bridges = 1
; extrusion_width = 0
; first_layer_height = 0.22
; infill_only_where_needed = 0
; interface_shells = 0
; layer_height = 0.2
; match_horizontal_surfaces = 0
; raft_layers = 0
; regions_overlap = 0
; seam_position = aligned
; sequential_print_priority = 0
; support_material = 1
; support_material_angle = 0
; support_material_buildplate_only = 0
; support_material_contact_distance = 0.2
; support_material_enforce_layers = 0
; support_material_extruder = 1
; support_material_extrusion_width = 0
; support_material_interface_extruder = 1
; support_material_interface_extrusion_width = 0
; support_material_interface_layers = 3
; support_material_interface_spacing = 0
; support_material_interface_speed = 100%
; support_material_max_layers = 0
; support_material_pattern = pillars
; support_material_spacing = 2.5
; support_material_speed = 60
; support_material_threshold = 60%
; xy_size_compensation = 0
; bottom_infill_pattern = rectilinear
; bottom_solid_layers = 3
; bridge_flow_ratio = 1
; bridge_speed = 60
; external_perimeter_extrusion_width = 0
; external_perimeter_speed = 50%
; external_perimeters_first = 0
; extra_perimeters = 1
; fill_angle = 45
; fill_density = 7%
; fill_gaps = 1
; fill_pattern = grid
; gap_fill_speed = 20
; infill_every_layers = 1
; infill_extruder = 1
; infill_extrusion_width = 0
; infill_overlap = 55%
; infill_speed = 80
; overhangs = 1
; perimeter_extruder = 1
; perimeter_extrusion_width = 0
; perimeter_speed = 0
; perimeters = 3
; small_perimeter_speed = 15
; solid_infill_below_area = 70
; solid_infill_every_layers = 0
; solid_infill_extruder = 1
; solid_infill_extrusion_width = 0
; solid_infill_speed = 20
; thin_walls = 1
; top_infill_extrusion_width = 0
; top_infill_pattern = rectilinear
; top_solid_infill_speed = 15
; top_solid_layers = 3
